img/logos/ionic.svg

<?xml version="1.0" encoding="UTF-8" standalone="no"?>
<svg width="512px" height="179px" viewBox="0 0 512 179" version="1.1" xmlns="http://www.w3.org/2000/svg" xmlns:xlink="http://www.w3.org/1999/xlink" preserveAspectRatio="xMinYMin meet">
	<g fill="#4E8EF7">
		<rect x="227.68138" y="66.2999844" width="3.69242352" height="69.8689254"></rect>
		<path d="M283.837742,64.5852862 C262.876862,64.5852862 247.062086,80.4060862 247.062086,101.234447 C247.062086,122.195325 262.876862,137.882604 283.837742,137.882604 C304.800628,137.882604 320.620424,122.195325 320.620424,101.234447 C320.618416,80.4060862 304.799624,64.5852862 283.837742,64.5852862 L283.837742,64.5852862 L283.837742,64.5852862 Z M283.837742,134.455216 C264.98811,134.455216 250.751498,120.2176 250.751498,101.234447 C250.751498,82.2502902 264.987106,68.0146824 283.837742,68.0146824 C302.68938,68.0146824 316.931012,82.2502902 316.931012,101.234447 C316.929004,120.2176 302.690384,134.455216 283.837742,134.455216 L283.837742,134.455216 L283.837742,134.455216 Z"></path>
		<path d="M390.354824,71.5725804 C382.444926,65.112345 372.954854,64.5852862 368.0768,64.5852862 C357.00455,64.5852862 344.741648,69.7283764 340.39567,79.7465098 L340.127624,79.7465098 L340.127624,66.2999844 L336.436204,66.2999844 L336.436204,136.16891 L340.127624,136.16891 L340.127624,95.960847 C340.127624,78.4283608 350.940862,68.0146824 368.472346,68.0146824 C379.018542,68.0146824 384.682666,71.4420706 388.243576,74.6044236 C393.517176,79.3509648 396.81305,87.128345 396.81305,99.2537098 L396.81305,136.16891 L400.506478,136.16891 L400.506478,99.2537098 C400.506478,86.7328 397.210604,77.3722352 390.354824,71.5725804 L390.354824,71.5725804 L390.354824,71.5725804 Z"></path>
		<rect x="420.939294" y="66.2999844" width="3.6914196" height="69.8689254"></rect>
		<path d="M477.096658,134.455216 C459.298134,134.455216 444.0064,121.006682 444.0064,101.234447 C444.0064,91.7433726 447.959844,82.5153254 453.630996,77.3712314 C460.880314,70.913004 467.338542,68.0146824 477.228172,68.0146824 C490.935718,68.0146824 503.065098,75.6585412 507.810636,88.972549 L511.898604,88.972549 C506.360972,72.4951844 491.33327,64.5852862 477.096658,64.5852862 C455.869742,64.5852862 440.312972,80.6681098 440.312972,101.366965 C440.312972,123.118933 456.791342,137.882604 477.096658,137.882604 C493.707546,137.882604 506.889036,128.391529 511.765082,114.153914 L507.68113,114.153914 C504.253742,124.568596 492.91545,134.455216 477.096658,134.455216 L477.096658,134.455216 L477.096658,134.455216 Z"></path>
		<circle cx="229.528596" cy="44.6423844" r="3.9845647"></circle>
		<circle cx="422.783498" cy="44.6423844" r="3.9845647"></circle>
		<circle cx="89.3731138" cy="89.2707138" r="36.4483764"></circle>
		<path d="M163.754667,27.4241254 C163.754667,20.5010824 158.140737,14.8911686 151.219702,14.8911686 C148.078431,14.8911686 145.217255,16.0537098 143.016659,17.9631686 C128.071278,6.69113726 109.489694,0 89.3721098,0 C40.1478274,0 0.101396078,40.0474352 0.101396078,89.2717176 C0.101396078,138.494996 40.1488314,178.543435 89.3731138,178.543435 C138.597396,178.543435 178.643827,138.494996 178.643827,89.2717176 C178.643827,69.1541334 171.95269,50.572549 160.681663,35.6261648 C162.591122,33.4275764 163.754667,30.5643922 163.754667,27.4241254 L163.754667,27.4241254 L163.754667,27.4241254 Z M89.3721098,175.539702 C41.804298,175.539702 3.10312156,136.838525 3.10312156,89.2707138 C3.10312156,41.702902 41.804298,3.0017255 89.3721098,3.0017255 C108.713663,3.0017255 126.586478,9.40072156 140.990745,20.1918746 C139.54309,22.2358588 138.684737,24.7275922 138.684737,27.4231216 C138.684737,34.3451608 144.296659,39.9550746 151.217694,39.9550746 C153.914227,39.9550746 156.402949,39.0967216 158.447937,37.6490666 C169.23909,52.0533334 175.638086,69.926149 175.638086,89.2697098 C175.640094,136.838525 136.940925,175.539702 89.3721098,175.539702 L89.3721098,175.539702 L89.3721098,175.539702 Z"></path>
	</g>
</svg>

<svg width="512" height="179" viewBox="0 0 512 179" xmlns="http://www.w3.org/2000/svg" preserveAspectRatio="xMinYMin meet"><g fill="#4E8EF7"><path d="M227.68 66.3h3.693v69.87h-3.692zM283.838 64.585c-20.96 0-36.776 15.82-36.776 36.65 0 20.96 15.815 36.648 36.776 36.648 20.963 0 36.782-15.688 36.782-36.65-.002-20.827-15.82-36.648-36.782-36.648zm0 69.87c-18.85 0-33.087-14.237-33.087-33.22 0-18.985 14.237-33.22 33.088-33.22 18.85 0 33.093 14.235 33.093 33.22 0 18.983-14.24 33.22-33.092 33.22zM390.355 71.573c-7.91-6.46-17.4-6.988-22.278-6.988-11.072 0-23.335 5.143-27.68 15.162h-.27V66.3h-3.69v69.87h3.69V95.96c0-17.532 10.814-27.945 28.345-27.945 10.547 0 16.21 3.427 19.772 6.59 5.273 4.746 8.57 12.523 8.57 24.65v36.914h3.692V99.253c0-12.52-3.295-21.882-10.15-27.68zM420.94 66.3h3.69v69.87h-3.69zM477.097 134.455c-17.8 0-33.09-13.448-33.09-33.22 0-9.492 3.953-18.72 9.624-23.864 7.25-6.457 13.71-9.355 23.598-9.355 13.708 0 25.837 7.644 30.583 20.958h4.09c-5.54-16.478-20.567-24.388-34.803-24.388-21.227 0-36.784 16.083-36.784 36.782 0 21.752 16.478 36.516 36.784 36.516 16.61 0 29.792-9.49 34.668-23.73h-4.084c-3.426 10.416-14.765 20.302-30.583 20.302z"/><circle cx="229.529" cy="44.642" r="3.985"/><circle cx="422.783" cy="44.642" r="3.985"/><circle cx="89.373" cy="89.271" r="36.448"/><path d="M163.755 27.424c0-6.923-5.614-12.533-12.535-12.533-3.142 0-6.003 1.164-8.203 3.073C128.07 6.69 109.49 0 89.372 0 40.148 0 .102 40.047.102 89.272c0 49.223 40.047 89.27 89.27 89.27 49.225 0 89.272-40.047 89.272-89.27 0-20.118-6.69-38.7-17.962-53.646 1.91-2.198 3.073-5.062 3.073-8.202zM89.372 175.54c-47.568 0-86.27-38.7-86.27-86.27 0-47.567 38.702-86.268 86.27-86.268 19.342 0 37.214 6.4 51.62 17.19-1.45 2.044-2.307 4.536-2.307 7.23 0 6.923 5.612 12.533 12.533 12.533 2.696 0 5.185-.858 7.23-2.306 10.79 14.403 17.19 32.276 17.19 51.62.002 47.57-38.697 86.27-86.266 86.27z"/></g></svg>
